svg/unreal.svg

<svg xmlns="http://www.w3.org/2000/svg" viewBox="0 0 24 24"><path d="M2 12a10 10 0 0 0 10 10 10 10 0 0 0 10-10A10 10 0 0 0 12 2 10 10 0 0 0 2 12m3.24 6.76A9.5 9.5 0 0 1 2.44 12c0-2.55.99-4.95 2.8-6.76A9.5 9.5 0 0 1 12 2.44c2.55 0 4.95.99 6.76 2.8a9.5 9.5 0 0 1 2.8 6.76c0 2.55-.99 4.95-2.8 6.76a9.5 9.5 0 0 1-6.76 2.8c-2.55 0-4.95-.99-6.76-2.8M6.35 9.5c-2.01 2.29-1.62 4.18-1.62 4.18s.55-1.3 1.88-2.68c.64-.63 1.11-.85 1.43-.85.36 0 .53.26.53.5v4.64c0 .46-.3.56-.57.55a1.5 1.5 0 0 1-.45-.08C8.92 17.73 12.19 18 12.19 18l1.44-1.5h.04L15 17.63c2.39-1.42 3.55-4.05 3.55-4.05-1.05 1.12-1.76 1.39-2.16 1.38-.36 0-.51-.21-.51-.21-.01-.1-.06-5.85.01-5.85.42-.77 1.74-2.34 1.74-2.34-2.47.49-3.82 2.1-3.82 2.1-.4-.31-1.22-.26-1.22-.26.38.21.76.81.76 1.32v4.93s-.85.73-1.47.73c-.38 0-.61-.21-.74-.38-.09-.12-.14-.21-.14-.21v-6.1c-.07.06-.18.11-.29.11-.14-.01-.28-.07-.37-.27-.08-.15-.12-.38-.12-.7 0-1.13 1.28-1.87 1.28-1.87-1.63.43-3.14 1.26-5.15 3.54"/></svg>

<?xml version="1.0" encoding="UTF-8"?><!DOCTYPE svg PUBLIC "-//W3C//DTD SVG 1.1//EN" "http://www.w3.org/Graphics/SVG/1.1/DTD/svg11.dtd"><svg xmlns="http://www.w3.org/2000/svg" xmlns:xlink="http://www.w3.org/1999/xlink" version="1.1" id="mdi-unreal" width="24" height="24" viewBox="0 0 24 24"><path d="M2,12A10,10 0 0,0 12,22A10,10 0 0,0 22,12A10,10 0 0,0 12,2A10,10 0 0,0 2,12M5.24,18.76C3.43,16.95 2.44,14.55 2.44,12C2.44,9.45 3.43,7.05 5.24,5.24C7.05,3.43 9.45,2.44 12,2.44C14.55,2.44 16.95,3.43 18.76,5.24C20.57,7.05 21.56,9.45 21.56,12C21.56,14.55 20.57,16.95 18.76,18.76C16.95,20.57 14.55,21.56 12,21.56C9.45,21.56 7.05,20.57 5.24,18.76M6.35,9.5C4.34,11.79 4.73,13.68 4.73,13.68C4.73,13.68 5.28,12.38 6.61,11C7.25,10.37 7.72,10.15 8.04,10.15C8.4,10.15 8.57,10.41 8.57,10.65V15.29C8.57,15.75 8.27,15.85 8,15.84C7.77,15.84 7.55,15.76 7.55,15.76C8.92,17.73 12.19,18 12.19,18L13.63,16.5H13.67L15,17.63C17.39,16.21 18.55,13.58 18.55,13.58C17.5,14.7 16.79,14.97 16.39,14.96C16.03,14.96 15.88,14.75 15.88,14.75C15.87,14.65 15.82,8.9 15.89,8.9C16.31,8.13 17.63,6.56 17.63,6.56C15.16,7.05 13.81,8.66 13.81,8.66C13.41,8.35 12.59,8.4 12.59,8.4C12.97,8.61 13.35,9.21 13.35,9.72V14.65C13.35,14.65 12.5,15.38 11.88,15.38C11.5,15.38 11.27,15.17 11.14,15C11.05,14.88 11,14.79 11,14.79V8.69C10.93,8.75 10.82,8.8 10.71,8.8C10.57,8.79 10.43,8.73 10.34,8.53C10.26,8.38 10.22,8.15 10.22,7.83C10.22,6.7 11.5,5.96 11.5,5.96C9.87,6.39 8.36,7.22 6.35,9.5" /></svg>
